src/components/00-materials/images-raw/Extractor Hood.svg

<svg width="96" height="96" viewBox="0 0 96 96" fill="none" xmlns="http://www.w3.org/2000/svg">
<path d="M41 72.3799C43.5 72.3799 43.5 72.9899 46 72.9899C48.5 72.9899 48.5 72.3799 51 72.3799C53.5 72.3799 53.5 72.9899 56 72.9899M41 76.7099C43.5 76.7099 43.5 77.3099 46 77.3099C48.5 77.3099 48.5 76.7099 51 76.7099C53.5 76.7099 53.5 77.3099 56 77.3099M32.7 12.6599H63.31V42.1699H32.7V12.6599ZM79.46 67.4799L63.3 42.1699H32.69L16.54 67.4799H79.46ZM64.56 74.5499C64.56 74.9791 64.4327 75.3986 64.1943 75.7555C63.9558 76.1124 63.6169 76.3905 63.2204 76.5547C62.8239 76.719 62.3876 76.762 61.9666 76.6782C61.5457 76.5945 61.159 76.3878 60.8556 76.0843C60.5521 75.7809 60.3454 75.3942 60.2617 74.9733C60.1779 74.5523 60.2209 74.116 60.3852 73.7195C60.5494 73.323 60.8275 72.9841 61.1844 72.7456C61.5412 72.5072 61.9608 72.3799 62.39 72.3799C62.9655 72.3799 63.5174 72.6085 63.9244 73.0155C64.3314 73.4224 64.56 73.9744 64.56 74.5499ZM72.32 74.5499C72.32 74.9791 72.1927 75.3986 71.9543 75.7555C71.7158 76.1124 71.3769 76.3905 70.9804 76.5547C70.5839 76.719 70.1476 76.762 69.7266 76.6782C69.3057 76.5945 68.919 76.3878 68.6156 76.0843C68.3121 75.7809 68.1054 75.3942 68.0217 74.9733C67.9379 74.5523 67.9809 74.116 68.1452 73.7195C68.3094 73.323 68.5875 72.9841 68.9444 72.7456C69.3012 72.5072 69.7208 72.3799 70.15 72.3799C70.7255 72.3799 71.2774 72.6085 71.6844 73.0155C72.0914 73.4224 72.32 73.9744 72.32 74.5499ZM80.08 74.5499C80.08 74.9791 79.9527 75.3986 79.7143 75.7555C79.4758 76.1124 79.1369 76.3905 78.7404 76.5547C78.3439 76.719 77.9076 76.762 77.4866 76.6782C77.0657 76.5945 76.679 76.3878 76.3756 76.0843C76.0721 75.7809 75.8654 75.3942 75.7817 74.9733C75.6979 74.5523 75.7409 74.116 75.9052 73.7195C76.0694 73.323 76.3475 72.9841 76.7044 72.7456C77.0612 72.5072 77.4808 72.3799 77.91 72.3799C78.4855 72.3799 79.0374 72.6085 79.4444 73.0155C79.8514 73.4224 80.08 73.9744 80.08 74.5499Z" stroke="#00008F" stroke-width="2" stroke-linecap="round" stroke-linejoin="round"/>
<path d="M11.23 67.75H84.78V81.34H11.23V67.75Z" stroke="#00008F" stroke-width="2" stroke-linecap="round" stroke-linejoin="round"/>
</svg>

<svg width="96" height="96" viewBox="0 0 96 96" fill="none" xmlns="http://www.w3.org/2000/svg"><path d="M41 72.38c2.5 0 2.5.61 5 .61s2.5-.61 5-.61 2.5.61 5 .61m-15 3.72c2.5 0 2.5.6 5 .6s2.5-.6 5-.6 2.5.6 5 .6M32.7 12.66h30.61v29.51H32.7V12.66zm46.76 54.82L63.3 42.17H32.69L16.54 67.48h62.92zm-14.9 7.07a2.17 2.17 0 11-4.34 0 2.17 2.17 0 014.34 0zm7.76 0a2.17 2.17 0 11-4.34 0 2.17 2.17 0 014.34 0zm7.76 0a2.17 2.17 0 11-4.34 0 2.17 2.17 0 014.34 0z" stroke="#00008F" stroke-width="2" stroke-linecap="round" stroke-linejoin="round"/><path d="M11.23 67.75h73.55v13.59H11.23V67.75z" stroke="#00008F" stroke-width="2" stroke-linecap="round" stroke-linejoin="round"/></svg>
